!!!COM:	Bach, Johann Sebastian
!!!CDT:	1685/02/21/-1750/07/28/
!!!OTL@@DE:	Der Tag, der ist so freudenreich
!!!SCT:	BWV 294
!!!PC#:	158
!!!AGN:	chorale
**kern	**kern	**kern	**kern
*ICvox	*ICvox	*ICvox	*ICvox
*Ibass	*Itenor	*Ialto	*Isoprn
*I"Bass	*I"Tenor	*I"Alto	*I"Soprano
*>[A,A,B]	*>[A,A,B]	*>[A,A,B]	*>[A,A,B]
*>norep[A,B]	*>norep[A,B]	*>norep[A,B]	*>norep[A,B]
*>A	*>A	*>A	*>A
*	*oclefC4	*oclefC3	*oclefC1
*clefF4	*clefGv2	*clefG2	*clefG2
*k[f#]	*k[f#]	*k[f#]	*k[f#]
*G:	*G:	*G:	*G:
*M4/4	*M4/4	*M4/4	*M4/4
*met(c)	*met(c)	*met(c)	*met(c)
*MM100	*MM100	*MM100	*MM100
8GL	4B	4d	4g
8F#J	.	.	.
=1	=1	=1	=1
8EL	4B	4e	4g
8D	.	.	.
8C	4c	4.e	4g
8BBJ	.	.	.
4AA	4c	.	4a
.	.	8f#	.
4GG	8dL	4g	4b
.	8fJ	.	.
=2	=2	=2	=2
4C	4e	4.g	8ccL
.	.	.	8bJ
4D	8AL	.	4a
.	16dL	8f#X	.
.	16cJJ	.	.
2GG;	2B;	2d;	2g;
=3	=3	=3	=3
4D	4d	4f#	4a
8AAL	8cL	8eL	4a
8BBJ	[8BJ	8dJ	.
4C	8BL]	[4e	4e
.	[8AJ	.	.
4D	8AL]	8eL]	4f#
.	16BL	16dLL	.
.	16AJJ	16cJJ	.
=4	=4	=4	=4
4E	4.G	8BL	4g
.	.	8GJ	.
4D	.	4d	4a
.	8F#	.	.
4GG;	4B;	4d;	4g;
=:|!	=:|!	=:|!	=:|!
*>B	*>B	*>B	*>B
4G	4B	4d	4g
=5	=5	=5	=5
4F#	8AL	4d	4dd
.	8c	.	.
8GL	8B	8gL	4dd
8F#J	8AJ	8aJ	.
4E	4G	8bL	4ee
.	.	8ccJ	.
4F#	4d	8bL	8ddL
.	.	8aJ	8ccJ
=6	=6	=6	=6
8GL	4d	4g	4b
8F#J	.	.	.
4E	4e	4g	4cc#
4D;	4f#;	4a;	4dd;
4F#	8dL	4a	4dd
.	8cnXJ	.	.
=7	=7	=7	=7
8GL	8BL	4g	4dd
8A	8c	.	.
8B	8d	4g	4dd
8GJ	8BJ	.	.
4c	8cL	4g	4ee
.	8B	.	.
4F#	8A	[4a	8ddL
.	8dJ	.	8ccJ
=8	=8	=8	=8
4G	4d	8a]	4b
.	.	4g	.
4D	8.dL	.	4a
.	.	8f#	.
.	16cJk	.	.
2GG;	2B;	2d;	2g;
=9	=9	=9	=9
8CL	4G	4c	4e
8BBJ	.	.	.
4AA	4A	4c	4f#
4BB	8D	8d	4g
.	4G	4B	.
4C#	.	.	4e
.	16F#LL	8A	.
.	16EJJ	.	.
=10	=10	=10	=10
4D	4F#	8AL	4d
.	.	8BJ	.
4AA	8EL	4A	4c#
.	16F#L	.	.
.	16GJJ	.	.
2DD;	2F#;	2A;	2d;
=11	=11	=11	=11
8EL	4B	4e	4g
8D	.	.	.
8C	4cnX	4e	4g
8BBJ	.	.	.
4AA	4c	8eL	4a
.	.	8f#J	.
4GG	8dL	4g	4b
.	8fJ	.	.
=12	=12	=12	=12
4C	4e	4.g	8ccL
.	.	.	8bJ
4D	8AL	.	4a
.	16dL	8f#X	.
.	16cJJ	.	.
2GG;	2B;	2d;	2g;
=13	=13	=13	=13
8DDL	8F#L	4d	4a
8EE	8GJ	.	.
8FF#	4A	4d	4a
8GGJ	.	.	.
8AAL	4A	4c#	4e
8GGJ	.	.	.
4FF#	4A	4d	4f#
=14	=14	=14	=14
4EE	4B	4d	8gL
.	.	.	8f#J
4AA	8EL	4c#	4e
.	16AL	.	.
.	16GJJ	.	.
4D;	4F#;	4A;	4d;
4BB	4G	4d	4f
=15	=15	=15	=15
4.C	4G	4cnX	4e
.	4E	4G	4c
8BB	.	.	.
4AA	4A	4c	4e
8DL	4A	4d	4f#X
8CJ	.	.	.
=16	=16	=16	=16
8BBL	4G	4.d	4g
8GGJ	.	.	.
4D	4F#	.	4a
.	.	8c	.
4GG;	4G;	4B;	4g;
==	==	==	==
*-	*-	*-	*-
!!!YOR1: 371 vierstimmige Choralges&auml;nge von Johann Sebastian Bach, 
!!!YOR2: 4th ed. by Alfred D&ouml;rffel (Leipzig: Breitkopf und H&auml;rtel, 
!!!YOR2: c.1875). 178 pp. Plate "V.A.10".  reprint: J.S. Bach, 371 Four-Part 
!!!YOR4: Chorales (New York: Associated Music Publishers, Inc., c.1940).
!!!SMS: B&H, 4th ed, Alfred D&ouml;rffel, c.1875, plate V.A.10
!!!EED:  Craig Stuart Sapp
!!!EEV:  2009/05/22
